component-icons/svg/multicolumncombobox.svg

<?xml version="1.0" encoding="utf-8"?>
<!-- Generator: Adobe Illustrator 24.2.3, SVG Export Plug-In . SVG Version: 6.00 Build 0)  -->
<svg version="1.1" id="Layer_1" xmlns="http://www.w3.org/2000/svg" xmlns:xlink="http://www.w3.org/1999/xlink" x="0px" y="0px"
	 width="24px" height="24px" viewBox="0 0 24 24" enable-background="new 0 0 24 24" xml:space="preserve">
<path d="M18,0v2h4l2-2H18z M20,18.2L17.2,21H4V4H2v19h16l4-4V4h-2V18.2z M16,0H0v2h16V0z M15,6v1h-2V6h-2v1H9V6H7v1H6v2h1v2H6v2h1v2
	H6v2h1v2l2-2h2v2l2-2h2v2l4-4h-2v-2l2-2h-2V9l2-2h-2V6H15z M11,15H9v-2h2V15z M11,11H9V9h2V11z M15,15h-2v-2h2V15z M15,11h-2V9h2V11
	z"/>
</svg>

<svg id="Layer_1" data-name="Layer 1" xmlns="http://www.w3.org/2000/svg" viewBox="0 0 24 24">
  <defs>
    <style>
      .cls-1 {
        fill: gray;
      }
    </style>
  </defs>
  <title>multicolumncombobox</title>
  <path class="cls-1" d="M18,0V2h4l2-2Zm2,18.17L17.17,21H4V4H2V23H18l4-4V4H20ZM16,0H0V2H16ZM15,6V7H13V6H11V7H9V6H7V7H6V9H7v2H6v2H7v2H6v2H7v2l2-2h2v2l2-2h2v2l4-4H17V13l2-2H17V9l2-2H17V6Zm-4,9H9V13h2Zm0-4H9V9h2Zm4,4H13V13h2Zm0-4H13V9h2Z"/>
</svg>
